X:1
T:Title
%%score { ( 1 3 ) | ( 2 4 ) }
L:1/8
M:4/4
K:G
V:1 treble nm="Grand Piano"
V:3 treble 
V:2 bass 
V:4 bass 
V:1
 z4 z2[Q:1/4=114] D2 | G2 G2 G2 [FA]2 | B2 B2 B2 G2 | c2 c2 c2 B2 | [FA]6 D2 | G2 G2 G2 [FA]2 | %6
 B2 B2 B2 G2 | [EA]2 [EA]2 G2 F2 | G6 z2 | d4 e2 d2 | B6 z2 | G4 z4 |[M:3/4] [B,D]6 |[M:1/4] D2 | %14
[M:4/4] G2 F2 G2 [FA]2 |[M:3/4] Bd- d4 |[M:1/4] B2 |[M:4/4] B2 A2 A2 B2 | [FA]6 z2 | d4 e2 d2 | %20
 B6 z2 | G4 z4 |[M:3/4] [B,D]6 |[M:1/4] D2 |[M:4/4] G2 F2 G2 [FA]2 |[M:3/4] Bd- d4 |[M:1/4] G2 | %27
[M:4/4] [GB]4 [FA]4 |[M:3/4] [B,DG]6 |] %29
V:2
 z4 z2 [G,B,]2 | [G,B,D]2 [G,B,D]2 [G,B,D]2 [D,D]2 | [G,DG]2 [G,DG]2 [G,DG]2 [G,B,]2 | %3
 [A,DF]2 [A,DF]2 [A,DF]2 [G,DG]2 | [D,D]6 [D,C]2 | [G,B,D]2 [G,B,D]2 [G,B,D]2 [D,D]2 | %6
 [G,DG]2 [G,DG]2 [G,DG]2[K:bass] [G,B,D]2 | [C,C]2 [C,C]2 [D,B,D]2 [D,CD]2 | [G,B,D]6 z2 | %9
 [G,B,G]4 [G,CG]2 [G,B,G]2 | [G,DG]6 z2 | D2 z2[K:bass] z G C,2 |[M:3/4] G,,2 B,,D, G,2 | %13
[M:1/4] [G,B,]2 |[M:4/4] [G,B,D]2 [A,CD]2 [G,B,D]2 [D,D]2 | %15
[M:3/4][K:treble] [G,DG][G,B,G]- [G,B,G]4 |[M:1/4] [G,DG]2 | %17
[M:4/4] [A,DF]2 [A,DF]2 [A,^CG]2 [A,CG]2 | D4 z4 | [G,B,G]4 [G,CG]2 [G,B,G]2 | [G,DG]6 z2 | %21
 D2 z2[K:bass] z G C,2 |[M:3/4] G,,2 B,,D, G,2 |[M:1/4] [G,B,]2 | %24
[M:4/4] [G,B,D]2 [A,CD]2 [G,B,D]2 [D,D]2 |[M:3/4][K:treble] [G,DG][G,B,G]- [G,B,G]4 | %26
[M:1/4][K:bass] [G,B,]2 |[M:4/4] [D,D]4 [D,C]4 |[M:3/4] [G,,G,]6 |] %29
V:3
 x8 | x8 | x8 | x8 | x8 | x8 | x8 | x8 | x8 | x8 | x8 | z2 =F2 .[CEA]2 [G,CE]2 |[M:3/4] G,4 z2 | %13
[M:1/4] x2 |[M:4/4] x8 |[M:3/4] x6 |[M:1/4] x2 |[M:4/4] x8 | z4 C4 | x8 | x8 | %21
 z2 =F2 .[CEA]2 [G,CE]2 |[M:3/4] G,4 z2 |[M:1/4] x2 |[M:4/4] x8 |[M:3/4] x6 |[M:1/4] x2 | %27
[M:4/4] x8 |[M:3/4] x6 |] %29
V:4
 x8 | x8 | x8 | x8 | x8 | x8 | x6[K:bass] x2 | x8 | x8 | x8 | x8 | [G,B,]4[K:bass] C,2 z2 | %12
[M:3/4] x6 |[M:1/4] x2 |[M:4/4] x8 |[M:3/4][K:treble] x6 |[M:1/4] x2 |[M:4/4] x8 | D,6 z2 | x8 | %20
 x8 | [G,B,]4[K:bass] C,2 z2 |[M:3/4] x6 |[M:1/4] x2 |[M:4/4] x8 |[M:3/4][K:treble] x6 | %26
[M:1/4][K:bass] x2 |[M:4/4] x8 |[M:3/4] x6 |] %29

